X: 2
T: Dinny O'Brien's
R: reel
M: 4/4
L: 1/8
K: Dmix
g|fd (3ddd ABcA|dcAd cAGE|D2 (3FED ADFD|EGAB cdeg||fdd^c AB=cA|dcAd cAGE|D2 ~E3G AB|cAGE{G} EDD:||z|fdd^ c defg|ad (3ddd adfd|e=ccB cdef|gc (3ccc gceg||fd (3ddd AB=cA|d=cAd cAGE|D2 ~E3G AB|cAGE EDD:||


Tune 1667	Setting 28916

